X: 4308
T: KIND DEARIE
%R: hornpipe, reel
B: James Kerr "Merry Melodies" v.4 p.32 #308
Z: 2016 John Chambers <jc:trillian.mit.edu>
M: C|
L: 1/8
K: Bb
(dc) |\
d2F2 F2(GA) | BABc B2d2 | cBcd edcB | d2G2 G2(dc) |\
d2F2 F2(GA) | BABc B2(ba) | gfga bgfe | d2B2 B2 :|
|: f2 |\
gfga b2d2 | edef g2B2 | cBcd edcB | d2G2 G2(dc) |\
d2F2 F2(GA) | BABc B2(ba) | gfga bgfe | d2B2 B2 :|
|: (3(fga) |\
bfdf gfdf | bfdf gfdf | bagf edcB | d2G2 G2 (dc) |\
GFDF GFDF | BFDF GFDF | Bfga bgfe | d2B2 B2 :|

%%sep 1 1 500
%%sep 1 1 500

